2/images/PSW-9.svg

<svg width="302" height="302" viewBox="0 0 302 302" fill="none" xmlns="http://www.w3.org/2000/svg">
<g id="PSW-9">
<path id="Stroke 1" d="M79.8906 283.101C101.051 294.521 125.271 301 151 301C176.741 301 200.961 294.521 222.12 283.101" stroke="#231F20" stroke-width="2" stroke-linecap="round" stroke-linejoin="round"/>
<path id="Stroke 3" d="M79.8906 18.9C101.051 7.48 125.271 1 151 1C176.741 1 200.961 7.48 222.12 18.9" stroke="#231F20" stroke-width="2" stroke-linecap="round" stroke-linejoin="round"/>
<path id="Stroke 5" d="M18.9 222.12C7.48 200.95 1 176.73 1 151C1 125.27 7.48 101.05 18.9 79.8799" stroke="#231F20" stroke-width="2" stroke-linecap="round" stroke-linejoin="round"/>
<path id="Stroke 7" d="M283.1 79.8901C294.52 101.05 300.999 125.27 300.999 151C300.999 176.73 294.52 200.95 283.1 222.11" stroke="#231F20" stroke-width="2" stroke-linecap="round" stroke-linejoin="round"/>
<path id="Stroke 9" d="M174.131 267.74C188.45 264.929 201.841 259.55 213.811 252.08" stroke="#B2B2B2" stroke-width="2" stroke-linecap="round" stroke-linejoin="round"/>
<path id="Stroke 11" d="M34.2598 127.87C37.0698 113.56 42.4488 100.17 49.9198 88.2002" stroke="#B2B2B2" stroke-width="2" stroke-linecap="round" stroke-linejoin="round"/>
<path id="Stroke 13" d="M88.1992 49.9098C100.17 42.4498 113.559 37.0698 127.869 34.2598" stroke="#B2B2B2" stroke-width="2" stroke-linecap="round" stroke-linejoin="round"/>
<path id="Stroke 15" d="M34.2598 174.13C37.0698 188.441 42.4488 201.83 49.9198 213.8" stroke="#B2B2B2" stroke-width="2" stroke-linecap="round" stroke-linejoin="round"/>
<path id="Stroke 17" d="M88.1992 252.09C100.17 259.55 113.559 264.93 127.869 267.74" stroke="#B2B2B2" stroke-width="2" stroke-linecap="round" stroke-linejoin="round"/>
<path id="Stroke 19" d="M174.131 34.2603C188.45 37.0703 201.841 42.4503 213.811 49.9203" stroke="#B2B2B2" stroke-width="2" stroke-linecap="round" stroke-linejoin="round"/>
<path id="Stroke 21" d="M252.08 213.8C259.551 201.83 264.931 188.441 267.74 174.13" stroke="#B2B2B2" stroke-width="2" stroke-linecap="round" stroke-linejoin="round"/>
<path id="Stroke 23" d="M252.08 88.2002C259.551 100.17 264.931 113.56 267.74 127.87" stroke="#B2B2B2" stroke-width="2" stroke-linecap="round" stroke-linejoin="round"/>
<path id="Stroke 25" d="M154.129 166.292H159.249C159.609 166.292 159.942 166.1 160.123 165.788L168.368 151.506C168.549 151.194 168.549 150.809 168.368 150.497L160.123 136.215C159.942 135.903 159.609 135.711 159.249 135.711H142.758C142.398 135.711 142.065 135.903 141.885 136.215L133.639 150.497C133.459 150.809 133.459 151.194 133.639 151.506L141.885 165.788C142.065 166.1 142.398 166.292 142.758 166.292H154.129" stroke="#1A1A1A" stroke-width="2" stroke-linecap="round" stroke-linejoin="round"/>
<path id="Stroke 27" d="M154.129 213.081H159.249C159.609 213.081 159.942 212.889 160.123 212.576L168.368 198.295C168.549 197.982 168.549 197.598 168.368 197.286L160.123 183.004C159.942 182.691 159.609 182.5 159.249 182.5H142.758C142.398 182.5 142.065 182.691 141.885 183.004L133.639 197.286C133.459 197.598 133.459 197.982 133.639 198.295L141.885 212.576C142.065 212.889 142.398 213.081 142.758 213.081H154.129" stroke="#1A1A1A" stroke-width="2" stroke-linecap="round" stroke-linejoin="round"/>
<path id="Stroke 29" d="M154.129 119.503H159.249C159.609 119.503 159.942 119.311 160.123 118.999L168.368 104.717C168.549 104.405 168.549 104.02 168.368 103.708L160.123 89.4264C159.942 89.1144 159.609 88.9224 159.249 88.9224H142.758C142.398 88.9224 142.065 89.1144 141.885 89.4264L133.639 103.708C133.459 104.02 133.459 104.405 133.639 104.717L141.885 118.999C142.065 119.311 142.398 119.503 142.758 119.503H154.129" stroke="#1A1A1A" stroke-width="2" stroke-linecap="round" stroke-linejoin="round"/>
<path id="Stroke 31" d="M101.629 166.292H106.749C107.109 166.292 107.442 166.1 107.623 165.788L115.868 151.506C116.049 151.194 116.049 150.809 115.868 150.497L107.623 136.215C107.442 135.903 107.109 135.711 106.749 135.711H90.2579C89.8979 135.711 89.5649 135.903 89.3849 136.215L81.1389 150.497C80.9589 150.809 80.9589 151.194 81.1389 151.506L89.3849 165.788C89.5649 166.1 89.8979 166.292 90.2579 166.292H101.629" stroke="#1A1A1A" stroke-width="2" stroke-linecap="round" stroke-linejoin="round"/>
<path id="Stroke 33" d="M206.629 166.292H211.749C212.109 166.292 212.442 166.1 212.623 165.788L220.868 151.506C221.049 151.194 221.049 150.809 220.868 150.497L212.623 136.215C212.442 135.903 212.109 135.711 211.749 135.711H195.258C194.898 135.711 194.565 135.903 194.385 136.215L186.139 150.497C185.959 150.809 185.959 151.194 186.139 151.506L194.385 165.788C194.565 166.1 194.898 166.292 195.258 166.292H206.629" stroke="#1A1A1A" stroke-width="2" stroke-linecap="round" stroke-linejoin="round"/>
<path id="Stroke 35" d="M103.338 128.965C108.09 118.704 116.061 110.239 125.938 104.862" stroke="#B2B2B2" stroke-width="2" stroke-linecap="round" stroke-linejoin="round"/>
<path id="Stroke 37" d="M176.072 197.148C185.949 191.76 193.92 183.295 198.662 173.044" stroke="#B2B2B2" stroke-width="2" stroke-linecap="round" stroke-linejoin="round"/>
<path id="Stroke 39" d="M176.072 104.862C185.949 110.239 193.92 118.704 198.662 128.965" stroke="#B2B2B2" stroke-width="2" stroke-linecap="round" stroke-linejoin="round"/>
<path id="Stroke 41" d="M103.338 173.045C108.09 183.296 116.061 191.761 125.938 197.149" stroke="#B2B2B2" stroke-width="2" stroke-linecap="round" stroke-linejoin="round"/>
<path id="Stroke 43" d="M297.589 236.35L213.938 213.936L236.351 297.587" stroke="#1A1A1A" stroke-width="2" stroke-linecap="round" stroke-linejoin="round"/>
<path id="Stroke 45" d="M4.41797 65.653L88.069 88.068L65.655 4.41602" stroke="#1A1A1A" stroke-width="2" stroke-linecap="round" stroke-linejoin="round"/>
<path id="Stroke 47" d="M65.655 297.587L88.069 213.936L4.41797 236.35" stroke="#1A1A1A" stroke-width="2" stroke-linecap="round" stroke-linejoin="round"/>
<path id="Stroke 49" d="M236.351 4.41602L213.938 88.068L297.589 65.653" stroke="#1A1A1A" stroke-width="2" stroke-linecap="round" stroke-linejoin="round"/>
<path id="Stroke 51" d="M171.004 282.322L151.004 247.681L131.004 282.322" stroke="#B2B2B2" stroke-width="2" stroke-linecap="round" stroke-linejoin="round"/>
<path id="Stroke 53" d="M131.004 19.6807L151.004 54.3217L171.004 19.6807" stroke="#B2B2B2" stroke-width="2" stroke-linecap="round" stroke-linejoin="round"/>
<path id="Stroke 55" d="M19.6836 171.002L54.3256 151.002L19.6836 131.002" stroke="#B2B2B2" stroke-width="2" stroke-linecap="round" stroke-linejoin="round"/>
<path id="Stroke 57" d="M282.325 131.001L247.684 151.001L282.325 171.001" stroke="#B2B2B2" stroke-width="2" stroke-linecap="round" stroke-linejoin="round"/>
</g>
</svg>

<svg width="302" height="302" fill="none" xmlns="http://www.w3.org/2000/svg"><g stroke-width="2" stroke-linecap="round" stroke-linejoin="round"><path d="M79.9 283.1A149.28 149.28 0 00151 301c25.74 0 49.96-6.48 71.12-17.9M79.9 18.9A149.28 149.28 0 01151 1c25.74 0 49.96 6.48 71.12 17.9M18.9 222.12A149.35 149.35 0 011 151c0-25.73 6.48-49.95 17.9-71.12M283.1 79.89A149.28 149.28 0 01301 151c0 25.73-6.48 49.95-17.9 71.11" stroke="#231F20"/><path d="M174.13 267.74a117.7 117.7 0 0039.68-15.66M34.26 127.87A117.68 117.68 0 0149.92 88.2M88.2 49.91a117.9 117.9 0 0139.67-15.65M34.26 174.13a117.68 117.68 0 0015.66 39.67M88.2 252.09a117.9 117.9 0 0039.67 15.65M174.13 34.26a117.68 117.68 0 0139.68 15.66M252.08 213.8a117.66 117.66 0 0015.66-39.67M252.08 88.2a117.66 117.66 0 0115.66 39.67" stroke="#B2B2B2"/><path d="M154.13 166.3h5.12c.36 0 .7-.2.87-.51l8.25-14.28a1 1 0 000-1.01l-8.25-14.28c-.18-.32-.51-.5-.87-.5h-16.5a1 1 0 00-.87.5l-8.24 14.28c-.18.3-.18.7 0 1l8.25 14.29a1 1 0 00.87.5h11.37M154.13 213.08h5.12c.36 0 .7-.2.87-.5l8.25-14.29a1 1 0 000-1L160.12 183a1 1 0 00-.87-.5h-16.5a1 1 0 00-.87.5l-8.24 14.29c-.18.3-.18.7 0 1l8.25 14.29a1 1 0 00.87.5h11.37M154.13 119.5h5.12c.36 0 .7-.19.87-.5l8.25-14.28a1 1 0 000-1.01l-8.25-14.28c-.18-.32-.51-.5-.87-.5h-16.5a1 1 0 00-.87.5l-8.24 14.28c-.18.31-.18.7 0 1l8.25 14.29a1 1 0 00.87.5h11.37M101.63 166.3h5.12c.36 0 .7-.2.87-.51l8.25-14.28a1 1 0 000-1.01l-8.25-14.28c-.18-.32-.51-.5-.87-.5h-16.5a1 1 0 00-.87.5l-8.24 14.28c-.18.3-.18.7 0 1l8.24 14.29a1 1 0 00.88.5h11.37M206.63 166.3h5.12c.36 0 .7-.2.87-.51l8.25-14.28a1 1 0 000-1.01l-8.25-14.28c-.18-.32-.51-.5-.87-.5h-16.5a1 1 0 00-.87.5l-8.24 14.28c-.18.3-.18.7 0 1l8.25 14.29a1 1 0 00.87.5h11.37" stroke="#1A1A1A"/><path d="M103.34 128.97a52.73 52.73 0 0122.6-24.1M176.07 197.15a52.76 52.76 0 0022.6-24.1M176.07 104.86a52.66 52.66 0 0122.6 24.1M103.34 173.04a52.84 52.84 0 0022.6 24.1" stroke="#B2B2B2"/><path d="M297.59 236.35l-83.65-22.41 22.41 83.65M4.42 65.65l83.65 22.42L65.66 4.42M65.66 297.59l22.4-83.65-83.64 22.41M236.35 4.42l-22.41 83.65 83.65-22.42" stroke="#1A1A1A"/><path d="M171 282.32l-20-34.64-20 34.64M131 19.68l20 34.64 20-34.64M19.68 171l34.65-20-34.65-20M282.32 131l-34.64 20 34.64 20" stroke="#B2B2B2"/></g></svg>
